X:13
T: ZU LAUTERBACH HAB ICH MEIN STRUMPF VERLOREN
N: E1009
O: Europa, Mitteleuropa, Deutschland, Sueddeutschland
R: Tanz - Lied
M: 3/4
L: 1/8
K: G
D2 | d3dB2 | G2G2G2 | A4D2 | D4
D2 | e3dc2 | c2B2A2 | d6- | d2z2
D2 | d3dB2 | G2G2G2 | A4D2 | D4
D2 | f3ed2 | d2c2A2 | G6- | G2z2

